scalable/apps/gdm-setup.svg

<?xml version="1.0" encoding="UTF-8" standalone="no"?>
<!-- Generator: Adobe Illustrator 19.0.0, SVG Export Plug-In . SVG Version: 6.00 Build 0)  -->

<svg
   xmlns:dc="http://purl.org/dc/elements/1.1/"
   xmlns:cc="http://creativecommons.org/ns#"
   xmlns:rdf="http://www.w3.org/1999/02/22-rdf-syntax-ns#"
   xmlns:svg="http://www.w3.org/2000/svg"
   xmlns="http://www.w3.org/2000/svg"
   xmlns:xlink="http://www.w3.org/1999/xlink"
   xmlns:sodipodi="http://sodipodi.sourceforge.net/DTD/sodipodi-0.dtd"
   xmlns:inkscape="http://www.inkscape.org/namespaces/inkscape"
   version="1.1"
   id="Capa_1"
   x="0px"
   y="0px"
   viewBox="0 0 48 48"
   xml:space="preserve"
   sodipodi:docname="gdm-setup.svg"
   width="48"
   height="48"
   inkscape:version="0.92.3 (2405546, 2018-03-11)"><metadata
   id="metadata41"><rdf:RDF><cc:Work
       rdf:about=""><dc:format>image/svg+xml</dc:format><dc:type
         rdf:resource="http://purl.org/dc/dcmitype/StillImage" /><dc:title /></cc:Work></rdf:RDF></metadata><defs
   id="defs39"><linearGradient
     inkscape:collect="always"
     id="linearGradient848"><stop
       style="stop-color:#000000;stop-opacity:1;"
       offset="0"
       id="stop844" /><stop
       style="stop-color:#000000;stop-opacity:0;"
       offset="1"
       id="stop846" /></linearGradient><clipPath
     clipPathUnits="userSpaceOnUse"
     id="clipPath1443"><rect
       ry="1.4527029"
       y="3"
       x="2"
       height="43"
       width="43"
       id="rect1445"
       style="fill:#4dc7c9;fill-opacity:1;stroke:none;stroke-width:0.19905733;stroke-linejoin:round;stroke-miterlimit:4;stroke-dasharray:none;stroke-opacity:0" /></clipPath><linearGradient
     inkscape:collect="always"
     xlink:href="#linearGradient848"
     id="linearGradient940"
     gradientUnits="userSpaceOnUse"
     x1="14.09205"
     y1="11.941446"
     x2="42.064854"
     y2="39.70615" /></defs><sodipodi:namedview
   pagecolor="#ffffff"
   bordercolor="#666666"
   borderopacity="1"
   objecttolerance="10"
   gridtolerance="10"
   guidetolerance="10"
   inkscape:pageopacity="0"
   inkscape:pageshadow="2"
   inkscape:window-width="1366"
   inkscape:window-height="719"
   id="namedview37"
   showgrid="false"
   showguides="true"
   inkscape:guide-bbox="true"
   inkscape:zoom="3.7565048"
   inkscape:cx="24"
   inkscape:cy="24.147043"
   inkscape:window-x="0"
   inkscape:window-y="25"
   inkscape:window-maximized="1"
   inkscape:current-layer="Capa_1"
   inkscape:snap-global="false" />
<path
   style="fill:#672178;stroke-width:0.0924025"
   d="m 23.712891,0.49414062 c -5.833461,0 -10.522199,1.12037758 -13.9355472,3.33203128 -4.1011931,2.6574037 -6.2695313,6.9015131 -6.2695313,12.2714841 0,7.226706 5.8062658,16.88549 7.5859375,19.673828 2.031747,3.183081 4.250107,6.079782 6.246094,8.15625 2.542362,2.644283 4.56815,3.875 6.373047,3.875 1.804991,0 3.829009,-1.230625 6.371093,-3.875 1.995894,-2.076376 4.214348,-4.973077 6.246094,-8.15625 C 38.10975,32.983238 43.916016,23.324362 43.916016,16.097656 43.916108,10.727777 41.749814,6.4836678 37.648438,3.8261719 34.235274,1.6145182 29.546261,0.49414062 23.712891,0.49414062 Z"
   id="path834" /><path
   style="fill:url(#linearGradient940);fill-opacity:1;stroke:none;stroke-width:1px;stroke-linecap:butt;stroke-linejoin:miter;stroke-opacity:1;opacity:0.7"
   d="m 25.875,47.099609 c 0.257689,-0.120595 0.47691,-0.07848 0.746094,-0.242187 1.049389,-0.638203 2.191848,-1.6075 3.46289,-2.929688 1.995894,-2.076376 4.214349,-4.973077 6.246094,-8.15625 0.889836,-1.394123 2.786912,-4.505287 4.460938,-8.171875 0.837012,-1.833294 1.617308,-3.806142 2.189453,-5.771484 0.194997,-0.669823 0.178057,-1.290602 0.318359,-1.953125 L 39.671875,16.248047 38.441406,15.017578 35.617188,12.193359 28.587891,7.4589844 24.847656,3.7167969 20.611328,19.482422 17.412109,29.835938 13.527344,34.751953 Z"
   id="path842"
   inkscape:connector-curvature="0" /><path
   style="fill:#e3dbde;stroke-width:0.0924025;fill-opacity:1"
   d="m 24.433594,3.6601562 c 0.111946,0.00447 0.223927,0.036457 0.330078,0.097656 0.18097,0.1043891 0.305786,0.2794969 0.347656,0.4746094 0.02086,0.097219 0.01975,0.1990763 -0.002,0.3007812 -0.03215,0.152766 -0.07112,0.3361998 -0.117187,0.5488281 0,0 0,0.00195 0,0.00195 0.241796,0.075927 0.765316,0.2467874 1.476562,0.5117187 C 29.985424,6.9067904 38.107442,10.503858 39.671875,16.248047 37.693176,13.644062 31.22048,9.4428537 25.894531,8.4785156 25.938358,8.2803674 26.049712,7.7295846 26.164062,7.1523438 L 24.658203,6.6191406 C 23.879061,10.157483 22.408065,16.566699 21.029297,21.099609 18.492724,29.439503 14.84375,35.509766 14.84375,35.509766 l -1.316406,-0.757813 c 0,0 3.650669,-6.070912 6.1875,-14.410156 1.632226,-5.366151 3.392032,-13.3615809 3.982422,-16.1113282 0.07695,-0.3592685 0.400488,-0.5837172 0.736328,-0.5703126 z"
   id="path2" />

<g
   id="g6"
   transform="translate(0,-464)">
</g>
<g
   id="g8"
   transform="translate(0,-464)">
</g>
<g
   id="g10"
   transform="translate(0,-464)">
</g>
<g
   id="g12"
   transform="translate(0,-464)">
</g>
<g
   id="g14"
   transform="translate(0,-464)">
</g>
<g
   id="g16"
   transform="translate(0,-464)">
</g>
<g
   id="g18"
   transform="translate(0,-464)">
</g>
<g
   id="g20"
   transform="translate(0,-464)">
</g>
<g
   id="g22"
   transform="translate(0,-464)">
</g>
<g
   id="g24"
   transform="translate(0,-464)">
</g>
<g
   id="g26"
   transform="translate(0,-464)">
</g>
<g
   id="g28"
   transform="translate(0,-464)">
</g>
<g
   id="g30"
   transform="translate(0,-464)">
</g>
<g
   id="g32"
   transform="translate(0,-464)">
</g>
<g
   id="g34"
   transform="translate(0,-464)">
</g>
<path
   inkscape:connector-curvature="0"
   style="fill:#000000;stroke-width:0.71689504;opacity:0.4"
   d="m 22.540132,35.081734 a 2.122536,2.1792082 0 0 1 -4.245072,0 2.122536,2.1792082 0 1 1 4.245072,0 z"
   id="path16-62" /><path
   inkscape:connector-curvature="0"
   style="opacity:0.4;fill:#000000;stroke-width:0.71689504"
   d="m 28.367859,34.892575 a 2.1225362,2.1792084 0 0 1 -4.245072,0 2.1225362,2.1792084 0 1 1 4.245072,0 z"
   id="path16-6-9" /><path
   inkscape:connector-curvature="0"
   style="fill:#000000;stroke-width:0.71689504;opacity:0.4"
   d="m 34.367859,34.892575 a 2.122536,2.1792082 0 0 1 -4.245072,0 2.122536,2.1792082 0 1 1 4.245072,0 z"
   id="path16-6-7-1" /><g
   id="g966"
   transform="translate(20)"><path
     id="path16"
     d="m 2.163661,34.517028 a 2.122536,2.1792082 0 0 1 -4.245072,0 2.122536,2.1792082 0 1 1 4.245072,0 z"
     style="fill:#bc5fd3;stroke-width:0.71689504"
     inkscape:connector-curvature="0" /><path
     id="path16-6"
     d="m 7.991388,34.327869 a 2.122536,2.1792082 0 0 1 -4.245072,0 2.122536,2.1792082 0 1 1 4.245072,0 z"
     style="opacity:1;fill:#bc5fd3;stroke-width:0.71689504"
     inkscape:connector-curvature="0" /><path
     id="path16-6-7"
     d="m 13.991388,34.327869 a 2.122536,2.1792082 0 0 1 -4.245072,0 2.122536,2.1792082 0 1 1 4.245072,0 z"
     style="fill:#bc5fd3;stroke-width:0.71689504"
     inkscape:connector-curvature="0" /></g><path
   style="fill:#000000;stroke-width:0.0924025;opacity:0.2"
   d="m 23.712891,0.49414062 c -5.833461,0 -10.522199,1.12037768 -13.935547,3.33203128 C 5.67615,6.4835756 3.507812,10.727685 3.507812,16.097656 c 0,7.226706 5.806266,16.88549 7.585938,19.673828 2.031747,3.183081 4.250108,6.079782 6.246094,8.15625 2.542362,2.644283 4.56815,3.875 6.373047,3.875 1.804991,0 3.829009,-1.230625 6.371093,-3.875 1.995894,-2.076376 4.214349,-4.973077 6.246094,-8.15625 C 38.10975,32.983238 43.916016,23.324362 43.916016,16.097656 43.916108,10.727777 41.749813,6.4836679 37.648438,3.8261719 34.235273,1.6145179 29.546261,0.49414062 23.712891,0.49414062 Z m 0,0.14453126 c 2.112445,0.084873 4.119293,0.27168535 5.875,0.69140622 1.164035,0.2782755 2.252955,0.6269196 3.263671,1.0429688 1.010719,0.4160492 1.943584,0.9002115 2.796876,1.453125 1.025344,0.664374 1.929139,1.4277032 2.708984,2.2832031 0.779844,0.8554999 1.435773,1.803713 1.96289,2.8359375 0.527119,1.0322245 0.926199,2.1492035 1.19336,3.3437495 0.267161,1.194548 0.402367,2.466125 0.402344,3.808594 0,1.806677 -0.363402,3.765127 -0.935547,5.730469 -0.572145,1.965342 -1.352441,3.93819 -2.189453,5.771484 -1.674026,3.666589 -3.571102,6.777752 -4.460938,8.171875 -2.031745,3.183173 -4.2502,6.079874 -6.246094,8.15625 -1.271042,1.322188 -2.413501,2.291485 -3.46289,2.929688 -0.319034,0.194025 -0.618451,0.306538 -0.910156,0.390625 -0.291517,-0.08404 -0.58956,-0.196919 -0.908204,-0.390625 C 21.75288,46.219207 20.611025,45.249876 19.339844,43.927734 17.343859,41.851266 15.125497,38.954565 13.09375,35.771484 12.203914,34.377315 10.306838,31.266186 8.632812,27.599609 7.7958,25.766321 7.015504,23.793459 6.443359,21.828125 5.871215,19.862791 5.507813,17.904333 5.507812,16.097656 c 0,-1.342493 0.134981,-2.614034 0.402344,-3.808594 C 6.177519,11.094504 6.578102,9.9775371 7.105469,8.9453125 7.632836,7.9130879 8.288347,6.9648635 9.068359,6.109375 9.848371,5.2538865 10.752046,4.4905229 11.777344,3.8261719 12.630681,3.2732586 13.5635,2.789096 14.574219,2.3730469 15.584938,1.9569977 16.673873,1.6083537 17.837891,1.3300781 19.59357,0.91035714 21.60043,0.72354491 23.712891,0.63867188 Z"
   id="path834-3"
   inkscape:connector-curvature="0" /></svg>

<svg xmlns="http://www.w3.org/2000/svg" xmlns:xlink="http://www.w3.org/1999/xlink" width="48" height="48"><defs><linearGradient id="a"><stop offset="0"/><stop offset="1" stop-opacity="0"/></linearGradient><linearGradient xlink:href="#a" id="b" gradientUnits="userSpaceOnUse" x1="14.09" y1="11.94" x2="42.06" y2="39.71"/></defs><path d="M23.71.5C17.88.5 13.2 1.6 9.78 3.82 5.68 6.48 3.5 10.73 3.5 16.1c0 7.22 5.8 16.88 7.58 19.67a54.48 54.48 0 0 0 6.25 8.16c2.54 2.64 4.57 3.87 6.37 3.87 1.8 0 3.83-1.23 6.37-3.87 2-2.08 4.22-4.98 6.25-8.16 1.78-2.79 7.59-12.45 7.59-19.67 0-5.37-2.17-9.62-6.27-12.27C34.24 1.6 29.55.49 23.7.49z" fill="#672178"/><path d="M25.88 47.1c.25-.12.47-.08.74-.24 1.05-.64 2.2-1.61 3.46-2.93 2-2.08 4.22-4.98 6.25-8.16.89-1.4 2.79-4.5 4.46-8.17.84-1.83 1.62-3.8 2.19-5.77.2-.67.18-1.3.32-1.95l-3.63-3.63-1.23-1.23-2.82-2.83-7.03-4.73-3.74-3.74-4.24 15.76-3.2 10.36-3.88 4.91z" fill="url(#b)" opacity=".7"/><path d="M24.43 3.66c.12 0 .23.04.33.1.18.1.3.28.35.47.02.1.02.2 0 .3l-.12.55c.24.08.77.25 1.48.52 3.52 1.3 11.64 4.9 13.2 10.65-1.98-2.6-8.45-6.8-13.78-7.77l.27-1.33-1.5-.53c-.78 3.54-2.25 9.95-3.63 14.48-2.54 8.34-6.19 14.41-6.19 14.41l-1.31-.76s3.65-6.07 6.18-14.4c1.64-5.37 3.4-13.37 3.99-16.12.07-.36.4-.58.73-.57z" fill="#e3dbde"/><path d="M22.54 35.08a2.12 2.18 0 0 1-4.24 0 2.12 2.18 0 1 1 4.24 0zM28.37 34.9a2.12 2.18 0 0 1-4.25 0 2.12 2.18 0 1 1 4.25 0zM34.37 34.9a2.12 2.18 0 0 1-4.25 0 2.12 2.18 0 1 1 4.25 0z" opacity=".4"/><g fill="#bc5fd3"><path d="M22.16 34.52a2.12 2.18 0 0 1-4.24 0 2.12 2.18 0 1 1 4.24 0zM28 34.33a2.12 2.18 0 0 1-4.25 0 2.12 2.18 0 1 1 4.24 0zM34 34.33a2.12 2.18 0 0 1-4.25 0 2.12 2.18 0 1 1 4.24 0z"/></g><path d="M23.71.5C17.88.5 13.2 1.6 9.78 3.82 5.68 6.48 3.5 10.73 3.5 16.1c0 7.22 5.8 16.88 7.58 19.67a54.48 54.48 0 0 0 6.25 8.16c2.54 2.64 4.57 3.87 6.37 3.87 1.8 0 3.83-1.23 6.37-3.87 2-2.08 4.22-4.98 6.25-8.16 1.78-2.79 7.59-12.45 7.59-19.67 0-5.37-2.17-9.62-6.27-12.27C34.24 1.6 29.55.49 23.7.49zm0 .14c2.12.08 4.12.27 5.88.69 1.16.28 2.25.63 3.26 1.04 1.01.42 1.95.9 2.8 1.46a12.92 12.92 0 0 1 4.67 5.12c.53 1.03.93 2.14 1.2 3.34.26 1.2.4 2.47.4 3.8 0 1.81-.37 3.77-.94 5.74a43.19 43.19 0 0 1-2.19 5.77 69.59 69.59 0 0 1-4.46 8.17 54.47 54.47 0 0 1-6.25 8.16 17.98 17.98 0 0 1-3.46 2.93c-.32.2-.62.3-.9.39-.3-.09-.6-.2-.92-.4-1.05-.63-2.19-1.6-3.46-2.92-2-2.08-4.21-4.98-6.25-8.16a69.6 69.6 0 0 1-4.46-8.17 43.19 43.19 0 0 1-2.19-5.77 20.93 20.93 0 0 1-.93-5.73c0-1.34.13-2.62.4-3.81.27-1.2.67-2.31 1.2-3.34a12.92 12.92 0 0 1 4.67-5.12 17.1 17.1 0 0 1 2.8-1.46c1-.41 2.1-.76 3.26-1.04 1.75-.42 3.76-.6 5.87-.7z" opacity=".2"/></svg>
